local/share/icons/dracula-icons-main/scalable/apps/firefox-trunk.svg

<svg width="64" height="64" version="1.1" viewBox="0 0 16.933 16.933" xmlns="http://www.w3.org/2000/svg">
 <circle cx="296.65" cy="5.7567" r="0" enable-background="new" fill="#d5d3cf" stroke-width=".87152"/>
 <g stroke-width=".18455">
  <path d="m15.093 5.809c-0.31078-0.74779-0.94116-1.5551-1.4349-1.8104a7.431 7.431 0 0 1 0.72435 2.1711l0.0013 0.012027c-0.80869-2.0162-2.1801-2.8291-3.3001-4.5993-0.05666-0.089506-0.11332-0.17919-0.16849-0.27387-0.03156-0.054034-0.05684-0.1028-0.0788-0.14764a1.3016 1.3016 0 0 1-0.10667-0.28328 0.018455 0.018455 0 0 0-0.01624-0.018476 0.025468 0.025468 0 0 0-0.01347 0c-9.59e-4 0-0.0024 0.001743-0.0035 0.001743-0.0011 3.6604e-4 -0.0035 0.001743-0.0051 0.002615l0.0028-0.005229c-1.7966 1.0519-2.4062 2.9993-2.4623 3.9734a3.5779 3.5779 0 0 0-1.9684 0.75868 2.1384 2.1384 0 0 0-0.18455-0.13989 3.316 3.316 0 0 1-0.020116-1.7483 5.2975 5.2975 0 0 0-1.7217 1.3306h-0.00332c-0.28355-0.35847-0.26362-1.5433-0.24738-1.7907a1.2785 1.2785 0 0 0-0.23881 0.12678 5.2089 5.2089 0 0 0-0.69907 0.59887 6.246 6.246 0 0 0-0.66862 0.80223v8.715e-4 -8.715e-4a6.0408 6.0408 0 0 0-0.95964 2.1671l-0.0096 0.047237c-0.013472 0.062924-0.062008 0.37814-0.070313 0.4466 0 0.00523-0.00111 0.010371-0.00166 0.015688a6.8167 6.8167 0 0 0-0.11608 0.98604v0.036865a7.1529 7.1529 0 0 0 14.201 1.2095c0.01199-0.092277 0.02178-0.18363 0.03248-0.27682a7.3556 7.3556 0 0 0-0.46395-3.5929zm-8.2438 5.5988c0.033403 0.01604 0.064777 0.03338 0.099101 0.04872l0.00499 0.0035q-0.052048-0.02494-0.10409-0.05187zm1.6385-4.314m5.8967-0.91057v-0.00697l0.0013 0.00784z" fill="#763ad2"/>
  <path d="m11.618 6.6457c0.0155 0.010894 0.02989 0.021788 0.04447 0.032682a3.894 3.894 0 0 0-0.66438-0.86645c-2.2231-2.2234-0.58262-4.821-0.30598-4.953l0.0028-0.004358c-1.7966 1.0519-2.4062 2.9993-2.4622 3.9734 0.083416-0.0061 0.1661-0.012724 0.25136-0.012724a3.6098 3.6098 0 0 1 3.134 1.8302z" fill="#806cff"/>
  <path d="m8.4881 7.0901c-0.011811 0.1779-0.64039 0.79153-0.86019 0.79153-2.0339 0-2.3641 1.2304-2.3641 1.2304 0.090063 1.0361 0.81202 1.8894 1.6847 2.3408 0.039863 0.02065 0.080279 0.03931 0.1207 0.05761q0.10501 0.04654 0.21002 0.08602a3.1807 3.1807 0 0 0 0.9307 0.17957c3.565 0.1672 4.2555-4.2631 1.6829-5.5486a2.4693 2.4693 0 0 1 1.7246 0.41874 3.6098 3.6098 0 0 0-3.134-1.8302c-0.084893 0-0.16794 0.00697-0.25136 0.012724a3.5779 3.5779 0 0 0-1.9684 0.75868c0.10907 0.092268 0.23217 0.21555 0.49145 0.47115 0.48536 0.47816 1.7301 0.97349 1.7329 1.0316z" fill="#5543c7"/>
  <path d="m5.9303 5.3471c0.057949 0.036865 0.10575 0.069025 0.14764 0.097994a3.316 3.316 0 0 1-0.020116-1.7483 5.2975 5.2975 0 0 0-1.7217 1.3306c0.03488-8.715e-4 1.0724-0.019522 1.5941 0.31964z" fill="#7857cd"/>
  <path d="m1.3883 8.6327c0.55199 3.2617 3.5081 5.7521 6.8641 5.8471 3.1059 0.08784 5.0902-1.7152 5.91-3.4742a6.4777 6.4777 0 0 0 0.22257-4.8275v-0.00697c0-0.00523-0.0011-0.00872 0-0.00697l0.0013 0.012027c0.25375 1.6567-0.5889 3.2617-1.9062 4.3471l-0.0041 0.0092c-2.5667 2.0904-5.023 1.2612-5.5202 0.92277q-0.052031-0.024892-0.10407-0.051822c-1.4965-0.71531-2.1148-2.0788-1.9823-3.2481a1.8368 1.8368 0 0 1-1.6943-1.0658 2.6977 2.6977 0 0 1 2.6296-0.10557 3.5618 3.5618 0 0 0 2.6855 0.10557c-0.0027715-0.058131-1.2476-0.55364-1.7329-1.0316-0.25929-0.2556-0.38238-0.37869-0.49145-0.47115a2.1384 2.1384 0 0 0-0.18455-0.13989c-0.042447-0.028935-0.090246-0.06031-0.14764-0.097994-0.52172-0.3392-1.5592-0.32056-1.5936-0.31963h-0.00332c-0.28345-0.35907-0.26351-1.5439-0.24728-1.7913a1.2785 1.2785 0 0 0-0.23881 0.12678 5.2089 5.2089 0 0 0-0.69907 0.59886 6.246 6.246 0 0 0-0.67139 0.80039v8.715e-4 -8.715e-4a6.0408 6.0408 0 0 0-0.95964 2.1671c-0.00351 0.014554-0.25763 1.1256-0.13232 1.7017z" fill="#8171ff"/>
  <path d="m10.998 5.8177a3.894 3.894 0 0 1 0.66438 0.86738c0.0393 0.029719 0.07603 0.059264 0.10722 0.087841 1.6216 1.4948 0.77197 3.6079 0.70867 3.7584 1.3173-1.0853 2.1592-2.6904 1.9062-4.3471-0.80906-2.0171-2.1805-2.83-3.3005-4.6003-0.05666-0.089506-0.11332-0.17919-0.16849-0.27387-0.03156-0.054034-0.05684-0.1028-0.0788-0.14764a1.3016 1.3016 0 0 1-0.10667-0.28328 0.018455 0.018455 0 0 0-0.01624-0.018476 0.025468 0.025468 0 0 0-0.01347 0c-9.59e-4 0-0.0024 0.001743-0.0035 0.001743-0.0011 3.6604e-4 -0.0035 0.001743-0.0051 0.002615-0.27664 0.13121-1.9171 2.7287 0.30635 4.9522z" fill="#a685ff"/>
  <path d="m11.768 6.7677c-0.03119-0.028586-0.06791-0.058131-0.10722-0.08785-0.01458-0.010894-0.02898-0.021788-0.04447-0.032682a2.4693 2.4693 0 0 0-1.7246-0.41874c2.5727 1.2863 1.8824 5.7158-1.6829 5.5486a3.1807 3.1807 0 0 1-0.9307-0.17955q-0.10501-0.039306-0.21002-0.08602c-0.040416-0.01848-0.080832-0.03687-0.1207-0.05761l0.00499 0.0035c0.49718 0.33938 2.9528 1.1685 5.5202-0.92277l0.0041-0.0092c0.06404-0.14948 0.91371-2.2631-0.70867-3.7574z" fill="#bcb9ff"/>
  <path d="m5.2638 9.1121s0.33016-1.2304 2.3641-1.2304c0.2198 0 0.84893-0.61362 0.86019-0.79153a3.5618 3.5618 0 0 1-2.6855-0.10556 2.6977 2.6977 0 0 0-2.6296 0.10556 1.8368 1.8368 0 0 0 1.6943 1.0658c-0.13251 1.1695 0.48574 2.5329 1.9823 3.2481 0.033403 0.01604 0.064777 0.03338 0.099101 0.04872-0.87344-0.45122-1.5947-1.3046-1.6847-2.3407z" fill="#bcb9ff"/>
 </g>
 <circle cx="-15.774" cy="13.461" r="0" enable-background="new" fill="#d5d3cf" stroke-width=".87152"/>
</svg>

<?xml version="1.0" encoding="UTF-8"?>
<svg xmlns="http://www.w3.org/2000/svg" xmlns:xlink="http://www.w3.org/1999/xlink" width="64" height="64" viewBox="0 0 64 64">
<path fill-rule="nonzero" fill="rgb(46.27451%, 22.745098%, 82.352941%)" fill-opacity="1" d="M 15.09375 5.808594 C 14.78125 5.0625 14.152344 4.253906 13.65625 4 C 14.011719 4.679688 14.253906 5.414062 14.382812 6.167969 L 14.382812 6.183594 C 13.574219 4.164062 12.203125 3.351562 11.082031 1.582031 C 11.027344 1.492188 10.96875 1.402344 10.914062 1.308594 C 10.882812 1.253906 10.859375 1.207031 10.835938 1.160156 C 10.789062 1.070312 10.753906 0.976562 10.730469 0.878906 C 10.730469 0.867188 10.722656 0.859375 10.714844 0.859375 C 10.710938 0.859375 10.703125 0.859375 10.699219 0.859375 C 10.699219 0.859375 10.699219 0.859375 10.695312 0.859375 C 10.695312 0.859375 10.691406 0.863281 10.691406 0.863281 L 10.695312 0.859375 C 8.898438 1.910156 8.289062 3.859375 8.230469 4.832031 C 7.515625 4.882812 6.828125 5.144531 6.261719 5.589844 C 6.203125 5.539062 6.144531 5.492188 6.078125 5.449219 C 5.914062 4.878906 5.910156 4.277344 6.058594 3.703125 C 5.398438 4.023438 4.8125 4.476562 4.335938 5.03125 L 4.332031 5.03125 C 4.050781 4.675781 4.070312 3.488281 4.085938 3.242188 C 4.003906 3.277344 3.921875 3.316406 3.847656 3.367188 C 3.597656 3.546875 3.363281 3.746094 3.148438 3.96875 C 2.902344 4.214844 2.679688 4.484375 2.480469 4.769531 C 2.019531 5.421875 1.695312 6.160156 1.519531 6.9375 L 1.511719 6.984375 C 1.496094 7.046875 1.449219 7.363281 1.441406 7.429688 C 1.441406 7.4375 1.4375 7.441406 1.4375 7.445312 C 1.375 7.773438 1.335938 8.101562 1.324219 8.433594 L 1.324219 8.46875 C 1.328125 12.179688 4.171875 15.269531 7.867188 15.585938 C 11.566406 15.902344 14.890625 13.335938 15.523438 9.679688 C 15.535156 9.585938 15.546875 9.496094 15.554688 9.402344 C 15.703125 8.183594 15.542969 6.949219 15.09375 5.808594 Z M 6.847656 11.40625 C 6.882812 11.425781 6.914062 11.441406 6.949219 11.457031 L 6.953125 11.460938 C 6.917969 11.445312 6.882812 11.425781 6.847656 11.40625 Z M 14.382812 6.183594 L 14.382812 6.175781 L 14.386719 6.183594 Z M 14.382812 6.183594 "/>
<path fill-rule="nonzero" fill="rgb(50.196078%, 42.352941%, 100%)" fill-opacity="1" d="M 11.617188 6.644531 C 11.632812 6.65625 11.648438 6.667969 11.664062 6.679688 C 11.484375 6.359375 11.257812 6.066406 11 5.8125 C 8.773438 3.589844 10.414062 0.992188 10.691406 0.859375 L 10.695312 0.855469 C 8.898438 1.90625 8.289062 3.855469 8.234375 4.828125 C 8.316406 4.820312 8.398438 4.816406 8.484375 4.816406 C 9.78125 4.816406 10.976562 5.515625 11.617188 6.644531 Z M 11.617188 6.644531 "/>
<path fill-rule="nonzero" fill="rgb(33.333333%, 26.27451%, 78.039216%)" fill-opacity="1" d="M 8.488281 7.089844 C 8.476562 7.269531 7.847656 7.882812 7.628906 7.882812 C 5.59375 7.882812 5.265625 9.113281 5.265625 9.113281 C 5.355469 10.148438 6.074219 11 6.949219 11.453125 C 6.988281 11.472656 7.027344 11.492188 7.070312 11.511719 C 7.140625 11.542969 7.210938 11.570312 7.277344 11.597656 C 7.578125 11.703125 7.890625 11.761719 8.210938 11.777344 C 11.773438 11.941406 12.464844 7.511719 9.894531 6.226562 C 10.5 6.148438 11.113281 6.296875 11.617188 6.644531 C 10.976562 5.515625 9.78125 4.820312 8.484375 4.816406 C 8.398438 4.816406 8.316406 4.824219 8.230469 4.828125 C 7.515625 4.878906 6.828125 5.140625 6.261719 5.585938 C 6.371094 5.679688 6.496094 5.804688 6.753906 6.058594 C 7.242188 6.535156 8.484375 7.03125 8.488281 7.089844 Z M 8.488281 7.089844 "/>
<path fill-rule="nonzero" fill="rgb(47.058824%, 34.117647%, 80.392157%)" fill-opacity="1" d="M 5.929688 5.347656 C 5.988281 5.382812 6.035156 5.417969 6.078125 5.445312 C 5.914062 4.875 5.90625 4.269531 6.058594 3.695312 C 5.398438 4.015625 4.8125 4.46875 4.335938 5.027344 C 4.371094 5.027344 5.410156 5.007812 5.929688 5.347656 Z M 5.929688 5.347656 "/>
<path fill-rule="nonzero" fill="rgb(50.588235%, 44.313725%, 100%)" fill-opacity="1" d="M 1.386719 8.632812 C 1.941406 11.894531 4.894531 14.386719 8.253906 14.480469 C 11.359375 14.566406 13.34375 12.765625 14.164062 11.003906 C 14.855469 9.484375 14.9375 7.753906 14.386719 6.179688 L 14.386719 6.171875 C 14.386719 6.164062 14.382812 6.164062 14.386719 6.164062 L 14.386719 6.175781 C 14.640625 7.832031 13.796875 9.4375 12.480469 10.523438 L 12.476562 10.53125 C 9.910156 12.621094 7.453125 11.792969 6.957031 11.457031 C 6.921875 11.4375 6.886719 11.421875 6.851562 11.402344 C 5.355469 10.6875 4.738281 9.324219 4.871094 8.15625 C 4.144531 8.167969 3.480469 7.75 3.175781 7.089844 C 3.972656 6.601562 4.96875 6.558594 5.804688 6.984375 C 6.652344 7.367188 7.617188 7.40625 8.488281 7.089844 C 8.488281 7.03125 7.242188 6.535156 6.757812 6.058594 C 6.496094 5.800781 6.375 5.679688 6.265625 5.585938 C 6.207031 5.535156 6.144531 5.488281 6.082031 5.445312 C 6.039062 5.417969 5.992188 5.386719 5.933594 5.347656 C 5.410156 5.007812 4.375 5.027344 4.339844 5.027344 L 4.335938 5.027344 C 4.054688 4.671875 4.074219 3.484375 4.089844 3.238281 C 4.003906 3.273438 3.925781 3.3125 3.851562 3.363281 C 3.601562 3.542969 3.367188 3.742188 3.152344 3.964844 C 2.90625 4.210938 2.679688 4.480469 2.480469 4.765625 C 2.019531 5.414062 1.695312 6.152344 1.519531 6.929688 C 1.515625 6.945312 1.261719 8.058594 1.386719 8.632812 Z M 1.386719 8.632812 "/>
<path fill-rule="nonzero" fill="rgb(65.098039%, 52.156863%, 100%)" fill-opacity="1" d="M 10.996094 5.816406 C 11.257812 6.074219 11.484375 6.367188 11.664062 6.683594 C 11.703125 6.714844 11.738281 6.746094 11.769531 6.773438 C 13.390625 8.269531 12.542969 10.378906 12.476562 10.53125 C 13.796875 9.445312 14.636719 7.839844 14.382812 6.183594 C 13.574219 4.167969 12.203125 3.355469 11.082031 1.582031 C 11.027344 1.496094 10.96875 1.40625 10.914062 1.308594 C 10.882812 1.257812 10.859375 1.207031 10.835938 1.164062 C 10.789062 1.074219 10.753906 0.976562 10.730469 0.878906 C 10.730469 0.871094 10.722656 0.863281 10.714844 0.859375 C 10.710938 0.859375 10.703125 0.859375 10.699219 0.859375 C 10.699219 0.859375 10.699219 0.863281 10.695312 0.863281 C 10.695312 0.863281 10.691406 0.863281 10.691406 0.863281 C 10.414062 0.996094 8.773438 3.59375 11 5.816406 Z M 10.996094 5.816406 "/>
<path fill-rule="nonzero" fill="rgb(73.72549%, 72.54902%, 100%)" fill-opacity="1" d="M 11.769531 6.769531 C 11.738281 6.738281 11.699219 6.710938 11.660156 6.679688 C 11.644531 6.667969 11.632812 6.65625 11.617188 6.648438 C 11.113281 6.296875 10.5 6.148438 9.890625 6.226562 C 12.464844 7.515625 11.773438 11.945312 8.207031 11.777344 C 7.890625 11.765625 7.578125 11.703125 7.277344 11.597656 C 7.207031 11.570312 7.136719 11.542969 7.066406 11.511719 C 7.027344 11.492188 6.988281 11.472656 6.949219 11.453125 L 6.953125 11.457031 C 7.449219 11.796875 9.90625 12.625 12.472656 10.535156 L 12.476562 10.523438 C 12.539062 10.375 13.390625 8.261719 11.769531 6.769531 Z M 11.769531 6.769531 "/>
<path fill-rule="nonzero" fill="rgb(73.72549%, 72.54902%, 100%)" fill-opacity="1" d="M 5.265625 9.113281 C 5.265625 9.113281 5.59375 7.882812 7.628906 7.882812 C 7.847656 7.882812 8.476562 7.269531 8.488281 7.089844 C 7.613281 7.40625 6.648438 7.367188 5.800781 6.984375 C 4.96875 6.5625 3.972656 6.601562 3.171875 7.089844 C 3.476562 7.75 4.140625 8.167969 4.867188 8.15625 C 4.734375 9.324219 5.351562 10.6875 6.847656 11.402344 C 6.882812 11.421875 6.914062 11.4375 6.949219 11.453125 C 6.074219 11 5.355469 10.148438 5.265625 9.113281 Z M 5.265625 9.113281 "/>
</svg>
